attachments/grafo_invert_B.svg

<?xml version="1.0" encoding="UTF-8" standalone="no"?>
<svg
   x="0"
   y="0"
   width="410"
   height="410"
   style="         width:410px;         height:410px;         background: transparent;         fill: none; "
   version="1.1"
   id="svg150"
   sodipodi:docname="grafo_invert_B.svg"
   inkscape:version="1.2.2 (b0a8486541, 2022-12-01)"
   xmlns:inkscape="http://www.inkscape.org/namespaces/inkscape"
   xmlns:sodipodi="http://sodipodi.sourceforge.net/DTD/sodipodi-0.dtd"
   xmlns="http://www.w3.org/2000/svg"
   xmlns:svg="http://www.w3.org/2000/svg">
  <defs
     id="defs154" />
  <sodipodi:namedview
     id="namedview152"
     pagecolor="#ffffff"
     bordercolor="#000000"
     borderopacity="0.25"
     inkscape:showpageshadow="2"
     inkscape:pageopacity="0.0"
     inkscape:pagecheckerboard="0"
     inkscape:deskcolor="#d1d1d1"
     showgrid="false"
     showguides="true"
     inkscape:zoom="1.4504312"
     inkscape:cx="109.27785"
     inkscape:cy="158.91826"
     inkscape:window-width="1901"
     inkscape:window-height="984"
     inkscape:window-x="6"
     inkscape:window-y="83"
     inkscape:window-maximized="1"
     inkscape:current-layer="layer1">
    <sodipodi:guide
       position="209.59284,492.04457"
       orientation="0,-1"
       id="guide389"
       inkscape:locked="false" />
  </sodipodi:namedview>
  <g
     inkscape:groupmode="layer"
     id="layer1"
     inkscape:label="grafo"
     transform="matrix(2.2148451,0,0,2.1735314,-562.60658,-206.59726)">
    <svg
       width="410"
       height="410"
       style="font-family:Asana-Math, Asana;fill:none"
       version="1.1"
       id="svg148">
      <g
         id="g66">
        <g
           id="g64">
          <g
             id="g62">
            <text
               x="414"
               y="244"
               style="font-style:normal;font-weight:400;font-size:15px;font-family:Arial, Helvetica, sans-serif;text-decoration:none;text-decoration-line:none;dominant-baseline:text-before-edge;white-space:pre;fill:#000000;fill-opacity:1;stroke:none"
               id="text60">x</text>
          </g>
        </g>
      </g>
      <g
         id="g74">
        <g
           id="g72">
          <g
             id="g70">
            <text
               x="274"
               y="240"
               style="font-style:normal;font-weight:400;font-size:15px;font-family:Arial, Helvetica, sans-serif;text-decoration:none;text-decoration-line:none;dominant-baseline:text-before-edge;white-space:pre;fill:#000000;fill-opacity:1;stroke:none"
               id="text68">w</text>
          </g>
        </g>
      </g>
      <g
         id="g82">
        <g
           id="g80">
          <g
             id="g78">
            <text
               x="416.5"
               y="146.5"
               style="font-style:normal;font-weight:400;font-size:15px;font-family:Arial, Helvetica, sans-serif;text-decoration:none;text-decoration-line:none;dominant-baseline:text-before-edge;white-space:pre;fill:#000000;fill-opacity:1;stroke:none"
               id="text76">v</text>
          </g>
        </g>
      </g>
      <g
         id="g90">
        <g
           id="g88">
          <g
             id="g86">
            <text
               x="276.5"
               y="147.5"
               style="font-style:normal;font-weight:400;font-size:15px;font-family:Arial, Helvetica, sans-serif;text-decoration:none;text-decoration-line:none;dominant-baseline:text-before-edge;white-space:pre;fill:#000000;fill-opacity:1;stroke:none"
               id="text84">u</text>
          </g>
        </g>
      </g>
      <g
         id="g98">
        <g
           id="g96">
          <g
             id="g94">
            <text
               x="277"
               y="106"
               style="font-style:normal;font-weight:400;font-size:15px;font-family:Arial, Helvetica, sans-serif;text-decoration:none;text-decoration-line:none;dominant-baseline:text-before-edge;white-space:pre;fill:#000000;fill-opacity:1;stroke:none"
               id="text92">b</text>
          </g>
        </g>
      </g>
      <g
         id="g106">
        <g
           id="g104">
          <g
             id="g102">
            <text
               x="346"
               y="111.5"
               style="font-style:normal;font-weight:400;font-size:15px;font-family:Arial, Helvetica, sans-serif;text-decoration:none;text-decoration-line:none;dominant-baseline:text-before-edge;white-space:pre;fill:#000000;fill-opacity:1;stroke:none"
               id="text100">a</text>
          </g>
        </g>
      </g>
      <g
         id="g114">
        <g
           id="g112">
          <g
             id="g110">
            <text
               x="328.5"
               y="198"
               style="font-style:normal;font-weight:400;font-size:15px;font-family:Arial, Helvetica, sans-serif;text-decoration:none;text-decoration-line:none;dominant-baseline:text-before-edge;white-space:pre;fill:#000000;fill-opacity:1;stroke:none"
               id="text108">c</text>
          </g>
        </g>
      </g>
      <g
         id="g122">
        <g
           id="g120">
          <g
             id="g118">
            <text
               x="405"
               y="189.5"
               style="font-style:normal;font-weight:400;font-size:15px;font-family:Arial, Helvetica, sans-serif;text-decoration:none;text-decoration-line:none;dominant-baseline:text-before-edge;white-space:pre;fill:#000000;fill-opacity:1;stroke:none"
               id="text116">d</text>
          </g>
        </g>
      </g>
      <g
         id="g130">
        <g
           id="g128">
          <g
             id="g126">
            <text
               x="345.5"
               y="149"
               style="font-style:normal;font-weight:400;font-size:15px;font-family:Arial, Helvetica, sans-serif;text-decoration:none;text-decoration-line:none;dominant-baseline:text-before-edge;white-space:pre;fill:#000000;fill-opacity:1;stroke:none"
               id="text124">e</text>
          </g>
        </g>
      </g>
      <g
         id="g138">
        <g
           id="g136">
          <g
             id="g134">
            <text
               x="347.5"
               y="250.5"
               style="font-style:normal;font-weight:400;font-size:15px;font-family:Arial, Helvetica, sans-serif;text-decoration:none;text-decoration-line:none;dominant-baseline:text-before-edge;white-space:pre;fill:#000000;fill-opacity:1;stroke:none"
               id="text132">f</text>
          </g>
        </g>
      </g>
      <g
         id="g146">
        <g
           id="g144">
          <g
             id="g142">
            <text
               x="312.5"
               y="170.5"
               style="font-style:normal;font-weight:400;font-size:15px;font-family:Arial, Helvetica, sans-serif;text-decoration:none;text-decoration-line:none;dominant-baseline:text-before-edge;white-space:pre;fill:#000000;fill-opacity:1;stroke:none"
               id="text140">g</text>
          </g>
        </g>
      </g>
    </svg>
    <svg
       class="role-diagram-draw-area"
       version="1.1"
       id="svg58"
       style="fill:none"
       width="100%"
       height="100%">
      <g
         class="shapes-region"
         style="fill:none;stroke:#000000"
         id="g50">
        <g
           class="composite-shape"
           id="g4">
          <path
             class="real"
             d="m 291.74,149.25 c 0.05,-4.84 4.02,-8.72 8.86,-8.67 4.83,0.06 8.71,4.03 8.66,8.86 -0.06,4.84 -4.03,8.72 -8.86,8.67 -4.84,-0.06 -8.72,-4.03 -8.66,-8.86 z"
             style="fill:none;fill-opacity:1;stroke:#000000;stroke-width:1px"
             id="path2" />
        </g>
        <g
           class="arrow-line"
           id="g8">
          <path
             class="connection real"
             stroke-dasharray="none"
             d="M 318.25,149.75 382.5,150"
             style="fill:none;fill-opacity:1;stroke:#000000;stroke-width:1px"
             id="path6" />
        </g>
        <g
           class="composite-shape"
           id="g12">
          <path
             class="real"
             d="m 291.74,249.75 c 0.05,-4.84 4.02,-8.72 8.86,-8.67 4.83,0.06 8.71,4.03 8.66,8.86 -0.06,4.84 -4.03,8.72 -8.86,8.67 -4.84,-0.06 -8.72,-4.03 -8.66,-8.86 z"
             style="fill:none;fill-opacity:1;stroke:#000000;stroke-width:1px"
             id="path10" />
        </g>
        <g
           class="composite-shape"
           id="g16">
          <path
             class="real"
             d="m 391.24,249.25 c 0.05,-4.84 4.02,-8.72 8.86,-8.67 4.83,0.06 8.71,4.03 8.66,8.86 -0.06,4.84 -4.03,8.72 -8.86,8.67 -4.84,-0.06 -8.72,-4.03 -8.66,-8.86 z"
             style="fill:none;fill-opacity:1;stroke:#000000;stroke-width:1px"
             id="path14" />
        </g>
        <g
           class="composite-shape"
           id="g20">
          <path
             class="real"
             d="m 391.24,150.25 c 0.05,-4.84 4.02,-8.72 8.86,-8.67 4.83,0.06 8.71,4.03 8.66,8.86 -0.06,4.84 -4.03,8.72 -8.86,8.67 -4.84,-0.06 -8.72,-4.03 -8.66,-8.86 z"
             style="fill:none;fill-opacity:1;stroke:#000000;stroke-width:1px"
             id="path18" />
        </g>
        <g
           class="arrow-line"
           id="g24">
          <path
             class="connection real"
             stroke-dasharray="none"
             d="m 399.5,164.5 v 66.75"
             style="fill:none;fill-opacity:1;stroke:#000000;stroke-width:1px"
             id="path22" />
        </g>
        <g
           class="arrow-line"
           id="g28">
          <path
             class="connection real"
             stroke-dasharray="none"
             d="m 318,250.5 68.25,-0.25"
             style="fill:none;fill-opacity:1;stroke:#000000;stroke-width:1px"
             id="path26" />
        </g>
        <g
           class="arrow-line"
           id="g32">
          <path
             class="connection real"
             stroke-dasharray="none"
             d="m 312.25,238.25 71,-71"
             style="fill:none;fill-opacity:1;stroke:#000000;stroke-width:1px"
             id="path30" />
        </g>
        <g
           class="arrow-line"
           id="g36">
          <path
             class="connection real"
             stroke-dasharray="none"
             d="m 314.63,166.13 70.12,70.12"
             style="fill:none;fill-opacity:1;stroke:#000000;stroke-width:1px"
             id="path34" />
        </g>
        <g
           class="arrow-line"
           id="g40">
          <path
             class="connection real"
             stroke-dasharray="none"
             d="m 314.75,139.25 c 25,-12 48.5,-11 72,-1.5"
             style="fill:none;fill-opacity:1;stroke:#000000;stroke-width:1px"
             id="path38" />
        </g>
        <g
           class="composite-shape"
           id="g46">
          <path
             class="real"
             d="m 286.48,147.84 c -1.27,0.22 -2.61,0.23 -3.96,0.01 -6.33,-1.05 -10.64,-6.92 -9.61,-13.12 1.02,-6.2 6.98,-10.37 13.32,-9.33 4.4,0.73 7.82,3.78 9.15,7.66 l -11,3.57 z"
             style="fill:none;fill-opacity:1;stroke:none;stroke-width:1px"
             id="path42" />
          <path
             class="real"
             d="m 286.48,147.84 c -1.27,0.22 -2.61,0.23 -3.96,0.01 -6.33,-1.05 -10.64,-6.92 -9.61,-13.12 1.02,-6.2 6.98,-10.37 13.32,-9.33 4.4,0.73 7.82,3.78 9.15,7.66"
             style="fill:none;fill-opacity:1;stroke:#000000;stroke-width:1px"
             id="path44" />
        </g>
        <g
           id="g48" />
      </g>
      <g
         id="g52" />
      <g
         id="g54" />
      <g
         id="g56" />
    </svg>
  </g>
</svg>

﻿<svg xmlns="http://www.w3.org/2000/svg" xmlns:xlink="http://www.w3.org/1999/xlink" x="0" y="0" width="410" height="410" style="
        width:410px;
        height:410px;
        background: transparent;
        fill: none;
">
        
        
        <svg xmlns="http://www.w3.org/2000/svg" class="role-diagram-draw-area"><g class="shapes-region" style="stroke: black; fill: none;"><g class="composite-shape"><path class="real" d=" M291.74,149.25 C291.79,144.41 295.76,140.53 300.6,140.58 C305.43,140.64 309.31,144.61 309.26,149.44 C309.2,154.28 305.23,158.16 300.4,158.11 C295.56,158.05 291.68,154.08 291.74,149.25 Z" style="stroke-width: 1px; stroke: rgb(0, 0, 0); fill: none; fill-opacity: 1;"/></g><g class="arrow-line"><path class="connection real" stroke-dasharray="" d="  M318.25,149.75 L382.5,150" style="stroke: rgb(0, 0, 0); stroke-width: 1px; fill: none; fill-opacity: 1;"/></g><g class="composite-shape"><path class="real" d=" M291.74,249.75 C291.79,244.91 295.76,241.03 300.6,241.08 C305.43,241.14 309.31,245.11 309.26,249.94 C309.2,254.78 305.23,258.66 300.4,258.61 C295.56,258.55 291.68,254.58 291.74,249.75 Z" style="stroke-width: 1px; stroke: rgb(0, 0, 0); fill: none; fill-opacity: 1;"/></g><g class="composite-shape"><path class="real" d=" M391.24,249.25 C391.29,244.41 395.26,240.53 400.1,240.58 C404.93,240.64 408.81,244.61 408.76,249.44 C408.7,254.28 404.73,258.16 399.9,258.11 C395.06,258.05 391.18,254.08 391.24,249.25 Z" style="stroke-width: 1px; stroke: rgb(0, 0, 0); fill: none; fill-opacity: 1;"/></g><g class="composite-shape"><path class="real" d=" M391.24,150.25 C391.29,145.41 395.26,141.53 400.1,141.58 C404.93,141.64 408.81,145.61 408.76,150.44 C408.7,155.28 404.73,159.16 399.9,159.11 C395.06,159.05 391.18,155.08 391.24,150.25 Z" style="stroke-width: 1px; stroke: rgb(0, 0, 0); fill: none; fill-opacity: 1;"/></g><g class="arrow-line"><path class="connection real" stroke-dasharray="" d="  M399.5,164.5 L399.5,231.25" style="stroke: rgb(0, 0, 0); stroke-width: 1px; fill: none; fill-opacity: 1;"/></g><g class="arrow-line"><path class="connection real" stroke-dasharray="" d="  M318,250.5 L386.25,250.25" style="stroke: rgb(0, 0, 0); stroke-width: 1px; fill: none; fill-opacity: 1;"/></g><g class="arrow-line"><path class="connection real" stroke-dasharray="" d="  M312.25,238.25 L383.25,167.25" style="stroke: rgb(0, 0, 0); stroke-width: 1px; fill: none; fill-opacity: 1;"/></g><g class="arrow-line"><path class="connection real" stroke-dasharray="" d="  M314.63,166.13 L384.75,236.25" style="stroke: rgb(0, 0, 0); stroke-width: 1px; fill: none; fill-opacity: 1;"/></g><g class="arrow-line"><path class="connection real" stroke-dasharray="" d="  M314.75,139.25 C339.75,127.25 363.25,128.25 386.75,137.75" style="stroke: rgb(0, 0, 0); stroke-width: 1px; fill: none; fill-opacity: 1;"/></g><g class="composite-shape"><path class="real" d=" M286.48,147.84 C285.21,148.06 283.87,148.07 282.52,147.85 C276.19,146.8 271.88,140.93 272.91,134.73 C273.93,128.53 279.89,124.36 286.23,125.4 C290.63,126.13 294.05,129.18 295.38,133.06 L284.38,136.63 Z" style="stroke-width: 1px; stroke: none; fill: none; fill-opacity: 1;"/><path class="real" d=" M286.48,147.84 C285.21,148.06 283.87,148.07 282.52,147.85 C276.19,146.8 271.88,140.93 272.91,134.73 C273.93,128.53 279.89,124.36 286.23,125.4 C290.63,126.13 294.05,129.18 295.38,133.06" style="stroke-width: 1px; stroke: rgb(0, 0, 0); fill: none; fill-opacity: 1;"/></g><g/></g><g/><g/><g/></svg>
        <svg xmlns="http://www.w3.org/2000/svg" xmlns:xlink="http://www.w3.org/1999/xlink" width="410" height="410" style="width:410px;height:410px;font-family:Asana-Math, Asana;background:transparent;"><g><g><g><text x="414" y="244" style="white-space:pre;stroke:none;fill:rgb(0,0,0);fill-opacity:1;font-size:15px;font-family:Arial, Helvetica, sans-serif;font-weight:400;font-style:normal;dominant-baseline:text-before-edge;text-decoration:none;">x</text></g></g></g><g><g><g><text x="274" y="240" style="white-space:pre;stroke:none;fill:rgb(0,0,0);fill-opacity:1;font-size:15px;font-family:Arial, Helvetica, sans-serif;font-weight:400;font-style:normal;dominant-baseline:text-before-edge;text-decoration:none;">w</text></g></g></g><g><g><g><text x="416.5" y="146.5" style="white-space:pre;stroke:none;fill:rgb(0,0,0);fill-opacity:1;font-size:15px;font-family:Arial, Helvetica, sans-serif;font-weight:400;font-style:normal;dominant-baseline:text-before-edge;text-decoration:none;">v</text></g></g></g><g><g><g><text x="276.5" y="147.5" style="white-space:pre;stroke:none;fill:rgb(0,0,0);fill-opacity:1;font-size:15px;font-family:Arial, Helvetica, sans-serif;font-weight:400;font-style:normal;dominant-baseline:text-before-edge;text-decoration:none;">u</text></g></g></g><g><g><g><text x="277" y="106" style="white-space:pre;stroke:none;fill:rgb(0,0,0);fill-opacity:1;font-size:15px;font-family:Arial, Helvetica, sans-serif;font-weight:400;font-style:normal;dominant-baseline:text-before-edge;text-decoration:none;">b</text></g></g></g><g><g><g><text x="346" y="111.5" style="white-space:pre;stroke:none;fill:rgb(0,0,0);fill-opacity:1;font-size:15px;font-family:Arial, Helvetica, sans-serif;font-weight:400;font-style:normal;dominant-baseline:text-before-edge;text-decoration:none;">a</text></g></g></g><g><g><g><text x="328.5" y="198" style="white-space:pre;stroke:none;fill:rgb(0,0,0);fill-opacity:1;font-size:15px;font-family:Arial, Helvetica, sans-serif;font-weight:400;font-style:normal;dominant-baseline:text-before-edge;text-decoration:none;">c</text></g></g></g><g><g><g><text x="405" y="189.5" style="white-space:pre;stroke:none;fill:rgb(0,0,0);fill-opacity:1;font-size:15px;font-family:Arial, Helvetica, sans-serif;font-weight:400;font-style:normal;dominant-baseline:text-before-edge;text-decoration:none;">d</text></g></g></g><g><g><g><text x="345.5" y="149" style="white-space:pre;stroke:none;fill:rgb(0,0,0);fill-opacity:1;font-size:15px;font-family:Arial, Helvetica, sans-serif;font-weight:400;font-style:normal;dominant-baseline:text-before-edge;text-decoration:none;">e</text></g></g></g><g><g><g><text x="347.5" y="250.5" style="white-space:pre;stroke:none;fill:rgb(0,0,0);fill-opacity:1;font-size:15px;font-family:Arial, Helvetica, sans-serif;font-weight:400;font-style:normal;dominant-baseline:text-before-edge;text-decoration:none;">f</text></g></g></g><g><g><g><text x="312.5" y="170.5" style="white-space:pre;stroke:none;fill:rgb(0,0,0);fill-opacity:1;font-size:15px;font-family:Arial, Helvetica, sans-serif;font-weight:400;font-style:normal;dominant-baseline:text-before-edge;text-decoration:none;">g</text></g></g></g></svg>
</svg>
